src/icons/paper-plane.svg

<svg width="24" height="24" viewBox="0 0 24 24" fill="none" xmlns="http://www.w3.org/2000/svg">
<g clip-path="url(#clip0_36_1466)">
<path d="M23.1163 0.881404C22.7578 0.518531 22.3117 0.254259 21.8213 0.11412C21.3308 -0.0260189 20.8124 -0.0372872 20.3163 0.0814036L4.31632 3.4514C3.3949 3.57777 2.52706 3.95888 1.81053 4.55182C1.094 5.14475 0.557238 5.92596 0.2607 6.80747C-0.0358385 7.68898 -0.0803781 8.63577 0.132097 9.54122C0.344572 10.4467 0.805621 11.2748 1.46332 11.9324L3.18132 13.6494C3.27431 13.7424 3.34805 13.8527 3.39833 13.9742C3.4486 14.0957 3.47443 14.2259 3.47432 14.3574V17.5254C3.47653 17.9708 3.57907 18.41 3.77432 18.8104L3.76632 18.8174L3.79232 18.8434C4.08534 19.4325 4.56391 19.909 5.15433 20.1994L5.18033 20.2254L5.18733 20.2174C5.58769 20.4127 6.02689 20.5152 6.47232 20.5174H9.64032C9.90538 20.5172 10.1597 20.6222 10.3473 20.8094L12.0643 22.5264C12.5248 22.992 13.073 23.3619 13.6771 23.6147C14.2812 23.8675 14.9294 23.9983 15.5843 23.9994C16.1301 23.9987 16.6721 23.9096 17.1893 23.7354C18.0628 23.4486 18.8387 22.9234 19.4296 22.2191C20.0204 21.5148 20.4027 20.6594 20.5333 19.7494L23.9083 3.7144C24.0332 3.21404 24.0258 2.68982 23.887 2.19317C23.7481 1.69651 23.4826 1.24447 23.1163 0.881404V0.881404ZM4.59732 12.2374L2.87832 10.5204C2.47804 10.1298 2.1975 9.63305 2.06961 9.08856C1.94172 8.54407 1.97181 7.9744 2.15632 7.4464C2.33522 6.90473 2.66593 6.42583 3.10912 6.06667C3.55231 5.7075 4.08934 5.48319 4.65632 5.4204L20.4973 2.0854L5.47232 17.1124V14.3574C5.47384 13.9637 5.39729 13.5737 5.2471 13.2098C5.09691 12.8459 4.87606 12.5154 4.59732 12.2374V12.2374ZM18.5683 19.4074C18.4915 19.9597 18.2623 20.4797 17.9064 20.909C17.5505 21.3383 17.082 21.6599 16.5535 21.8378C16.0249 22.0156 15.4573 22.0425 14.9143 21.9156C14.3712 21.7888 13.8743 21.513 13.4793 21.1194L11.7593 19.3994C11.4817 19.1202 11.1515 18.8989 10.7877 18.7482C10.424 18.5975 10.034 18.5204 9.64032 18.5214H6.88532L21.9123 3.4994L18.5683 19.4074Z" fill="#121C40"/>
</g>
<defs>
<clipPath id="clip0_36_1466">
<rect width="23.9968" height="23.9994" fill="white"/>
</clipPath>
</defs>
</svg>

<?xml version="1.0" encoding="UTF-8"?>
<svg xmlns="http://www.w3.org/2000/svg" id="Outline" viewBox="0 0 24 24" width="512" height="512"><path d="M23.119.882a2.966,2.966,0,0,0-2.8-.8l-16,3.37a4.995,4.995,0,0,0-2.853,8.481L3.184,13.65a1,1,0,0,1,.293.708v3.168a2.965,2.965,0,0,0,.3,1.285l-.008.007.026.026A3,3,0,0,0,5.157,20.2l.026.026.007-.008a2.965,2.965,0,0,0,1.285.3H9.643a1,1,0,0,1,.707.292l1.717,1.717A4.963,4.963,0,0,0,15.587,24a5.049,5.049,0,0,0,1.605-.264,4.933,4.933,0,0,0,3.344-3.986L23.911,3.715A2.975,2.975,0,0,0,23.119.882ZM4.6,12.238,2.881,10.521a2.94,2.94,0,0,1-.722-3.074,2.978,2.978,0,0,1,2.5-2.026L20.5,2.086,5.475,17.113V14.358A2.978,2.978,0,0,0,4.6,12.238Zm13.971,7.17a3,3,0,0,1-5.089,1.712L11.762,19.4a2.978,2.978,0,0,0-2.119-.878H6.888L21.915,3.5Z"/></svg>
